image/icon/Campsite.svg

<!--version="1.0" encoding="UTF-8"--><svg version="1.1" id="Layer_1" xmlns="http://www.w3.org/2000/svg" width="29" height="40" xml:space="preserve"><g id="PathID_88" transform="matrix(1, 0, 0, 1, 14.05, 19.7)"><path style="fill: rgb(0, 0, 0); fill-opacity: 1;" d="m-1.15-19.7 1.15 3 1.2-3h5.15L3.45-7.85l10.65 27.7H3.4L0 6.1l-3.35 13.75h-10.7L-3.4-7.85-6.3-19.7h5.15m-2.6 2 2.45 10-9.8 25.55h6.2L0-2.35l4.95 20.2h6.2L1.35-7.7l2.45-10H2.55L0-11.15l-2.5-6.55h-1.25"/><path style="fill: rgb(255, 255, 255); fill-opacity: 1;" d="M-2.5-17.7 0-11.15l2.55-6.55H3.8l-2.45 10 9.8 25.55h-6.2L0-2.35l-4.9 20.2h-6.2L-1.3-7.7l-2.45-10h1.25"/></g></svg>

<?xml version="1.0" encoding="UTF-8"?>
<svg version="1.1" id="Layer_1" xmlns="http://www.w3.org/2000/svg" xmlns:xlink="http://www.w3.org/1999/xlink" width="29px" height="40px" xml:space="preserve">
<g id="PathID_88" transform="matrix(1, 0, 0, 1, 14.05, 19.7)">
<path style="fill:#000000;fill-opacity:1" d="M-1.15 -19.7L0 -16.7L1.2 -19.7L6.35 -19.7L3.45 -7.85L14.1 19.85L3.4 19.85L0 6.1L-3.35 19.85L-14.05 19.85L-3.4 -7.85L-6.3 -19.7L-1.15 -19.7M-3.75 -17.7L-1.3 -7.7L-11.1 17.85L-4.9 17.85L0 -2.35L4.95 17.85L11.15 17.85L1.35 -7.7L3.8 -17.7L2.55 -17.7L0 -11.15L-2.5 -17.7L-3.75 -17.7"/>
<path style="fill:#FFFFFF;fill-opacity:1" d="M-2.5 -17.7L0 -11.15L2.55 -17.7L3.8 -17.7L1.35 -7.7L11.15 17.85L4.95 17.85L0 -2.35L-4.9 17.85L-11.1 17.85L-1.3 -7.7L-3.75 -17.7L-2.5 -17.7"/>
</g>
</svg>
